X:1423
L:1/8
Q:1/4=75
M:2/4
K:D
 a | a2 fd | (dc)(BA) | B<g B<e | (dc)(BA) |{b} a2 fd | dcBA | B(g/e/) dc | d3 :: A | AA/B/ Ac | 
 df a2 |"^P" (gb) (Be) | (dc)(BA) |"^F" AA/B/ Ac | df a2 |"^P" (gb) (ac) | d3 :|

